!!!COM: Bach, Johann Sebastian
!!!OPR: Joh. Seb. Bachs vierstimmige Choralges‰nge
!!!XEN: Four-part Chorales
!!!OTL: 101. Jesu, der du meine Seele
!!!SCT: BWV 354
!!!SCA: Thematisch-systematisches Verzeichnis der musikalischen Werke Johann Sebastian Bach: Bach-Werke-Verzeichnis (Schmieder)
!!!YOR: Bach Gesellschaft Edition xxxix
!!!ENC: Steven Rasmussen
!!!CDT: 1685/3//-1750/7/28/
!!!OCY: Deutschland
!!!YEC: Copyright (c) 1994, 2000 Center for Computer Assisted Research in the Humanities
!!!YEM: Rights to all derivative editions reserved
!!!YEN: United States of America
**kern	**kern	**kern	**kern	**silbe
*I:[BASSO]	*I:[TENORE]	*I:[ALTO]	*I:[SOPRANO]	*I:[SOPRANO]
*>[A,A,B]	*>[A,A,B]	*>[A,A,B]	*>[A,A,B]	*
*>A	*>A	*>A	*>A	*
*clefF4	*clefGv2	*clefG2	*clefG2	*
*k[b-e-a-d-]	*k[b-e-a-d-]	*k[b-e-a-d-]	*k[b-e-a-d-]	*
*f:	*f:	*f:	*f:	*
*M4/4	*M4/4	*M4/4	*M4/4	*
=1-	=1-	=1-	=1-	=1-
8BB-L	8d-L	4b-	4ff	Je-aus
8CJ	8cJ	.	.	.
8D-L	4B-	8fL	4ff	-su,des
8E-J	.	8gJ	.	.
4F	8fL	4an	4cc	derTeu-
.	8e-J	.	.	.
8B-L	8d-L	4f	4dd-	du-fels
8A-J	8cJ	.	.	.
=2	=2	=2	=2	=2
4G-	4B-	8e-L	4ee-	mei-finst-
.	.	8fJ	.	.
8FL	4c	4g-	8dd-L	-ne-rer
8E-J	.	.	8ccJ	.
4F	4An	8fL	4cc	See-H√∂h-
.	.	8e-J	.	.
4BB-;	4F;	4d-;	4b-;	-le-le
=3	=3	=3	=3	=3
8B-L	4B-	4f	4dd-	hastund
8A-J	.	.	.	.
8G-L	4B-	8b-L	4dd-	durchder
8FJ	.	8a-J	.	.
8E-L	8B-L	8g-L	4cc	dei-schwe-
8FJ	8AnJ	8fJ	.	.
4G-	4B-	8fL	4b-	-nen-ren
.	.	8e-J	.	.
=4	=4	=4	=4	=4
8CL	4c	8e-L	4an	bit-S√ºn-
8E-J	.	8cJ	.	.
8D-L	8B-L	8fL	4b-	-tern-den-
8BB-J	8d-J	8gJ	.	.
2F;	2c;	2an;	2cc;	Tod-not
=5:|!	=5:|!	=5:|!	=5:|!	=5:|!
*>B	*>B	*>B	*>B	*
4F	4f	4an	4cc	kr√§f-
8B-L	4f	4b-	4dd-	-tig-
8A-J	.	.	.	.
8GL	4e-	4b-	8ee-L	-lich
8E-J	.	.	8dd-J	.
8A-L	4e-	4a-	4cc	her-
8GJ	.	.	.	.
=6	=6	=6	=6	=6
8FL	8d-L	8a-L	4dd-	-aus-
8E-J	8e-J	8gJ	.	.
4D-	4f	4a-	8ccL	-ge-
.	.	.	8b-J	.
4E-	8e-L	4g	4b-	-ris-
.	8d-J	.	.	.
4AA-;	4c;	4e-;	4a-;	-sen
=7	=7	=7	=7	=7
4BB-	8fL	4b-	4dd-	und
.	8g-J	.	.	.
4C	8fL	4a-	4ee-	mich
.	8e-J	.	.	.
4D-	8d-L	4a-	8ffL	Sol-
.	8cJ	.	8ee-J	.
8G-L	4B-	8b-L	4dd-	-ches
8FJ	.	8a-J	.	.
=8	=8	=8	=8	=8
4E-	4e-	8b-L	4gg-	las-
.	.	8ccJ	.	.
8FL	8A-L	4dd-	4ff	-sen
8G-J	8B-J	.	.	.
4A-	4c	8a-L	4ee-	wis-
.	.	8g-J	.	.
4D-;	4d-;	4f;	4dd-;	-sen
=9	=9	=9	=9	=9
8A-L	4e-	4a-	4cc	durch
8G-J	.	.	.	.
8FL	4f	4a-	4dd-	dein
8E-J	.	.	.	.
8D-L	4e-	4a-	4ee-	an-
8CJ	.	.	.	.
4D-	4d-	8a-L	4ff	-ge-
.	.	8b-J	.	.
=10	=10	=10	=10	=10
4AAn	8g-L	4cc	4ee-	-neh-
.	8fJ	.	.	.
4BB-	8fL	4b-	4dd-	-mes
.	8enJ	.	.	.
2F;	2f;	2an;	2cc;	Wort:
=11	=11	=11	=11	=11
8d-L	4f	4b-	4b-	sei
8cJ	.	.	.	.
8B-L	4f	4f	4cc	doch
8AnJ	.	.	.	.
8B-L	4B-	4f	4dd-	itzt,
8A-J	.	.	.	.
8G-L	4B-	8e-L	8ee-L	o
8FJ	.	8fJ	8dd-J	.
=12	=12	=12	=12	=12
4E-	4B-	4g-	4.cc	Gott,
4F	4An	8fL	.	.
.	.	8e-J	8cc	mein
2BB-;	2F;	2dn;	2b-;	Hort.
==|!	==|!	==|!	==|!	==|!
*-	*-	*-	*-	*-
!!!RWG: Key is interpreted using the Humdrum key tool.
!!!URL-pdf: https://s9.imslp.org/files/imglnks/usimg/6/6b/IMSLP24489-PMLP09471-CCARH_Bach_Chorales.pdf#page=71 Musedata edition
!!!URL-pdf: https://s9.imslp.org/files/imglnks/usimg/7/7a/IMSLP04155-Bach_-_BGA_253-438.pdf#page=54 	Bach-Gesellschaft Ausgabe, Band 39 (pp.175-276) Leipzig: Breitkopf und H‰rtel, 1892. Plate B.W. XXXIX.
!!!END: 1994/07/08
!!!EMD: Converted from MuseData to Humdrum Dec 19, 2000, by Andreas Kornstaedt using muse2kern.
!!!EED: Craig Stuart Sapp
!!!EEV: 2024/03/31
!!!ONB: Some non-unicode characters
!!!filter-keyboard: satb2gs
